X:1
T: The Golden Gate
C:
R:Reel
Q: 232
K:G
M:4/4
L:1/8
|:dc|B2 BA G2 GF|EA GE D2 DC|B,D GA BG FG|ed BG A2 dc|
B2 BA G2 GF|EA GE D2 DC|B,D GB AD FA|G2 B2 G2:|
K:D
FG|:A3/2d1/2 ((3dcd) f3/2d1/2 ((3dcd)|B3/2e1/2 ((3e^de) g3/2e1/2 ((3ede)|ce ba ge cG|FA df a2 FG|
A3/2d1/2 ((3dcd) f3/2d1/2 ((3dcd)|B3/2e1/2 ((3e^de) g3/2e1/2 ((3ede)|ce ba ge Bc|1d^d fe dc =cA:|2d2 d2 d2||
